material/.icons/material/home-thermometer.svg

<svg xmlns="http://www.w3.org/2000/svg" viewBox="0 0 24 24"><path d="M12 3L2 12h3v8h14v-8h3L12 3m0 5a1 1 0 011 1v5.27A2 2 0 0114 16a2 2 0 01-2 2 2 2 0 01-2-2 2 2 0 011-1.73V9a1 1 0 011-1z"/></svg>

<?xml version="1.0" encoding="UTF-8"?><!DOCTYPE svg PUBLIC "-//W3C//DTD SVG 1.1//EN" "http://www.w3.org/Graphics/SVG/1.1/DTD/svg11.dtd"><svg xmlns="http://www.w3.org/2000/svg" xmlns:xlink="http://www.w3.org/1999/xlink" version="1.1" id="mdi-home-thermometer" width="24" height="24" viewBox="0 0 24 24"><path d="M12 3L2 12H5V20H19V12H22L12 3M12 8A1 1 0 0 1 13 9V14.27A2 2 0 0 1 14 16A2 2 0 0 1 12 18A2 2 0 0 1 10 16A2 2 0 0 1 11 14.27V9A1 1 0 0 1 12 8Z" /></svg>
